vendor/shopware/storefront/Resources/app/storefront/dist/assets/icon/default/calendar-empty.svg

<svg xmlns="http://www.w3.org/2000/svg" width="24" height="24" viewBox="0 0 24 24">
  <path fill="#758CA3" fill-rule="evenodd" d="M21,6 L21,5 C21,4.44771525 20.5522847,4 20,4 L4,4 C3.44771525,4 3,4.44771525 3,5 L3,6 L21,6 Z M21,8 L3,8 L3,21 C3,21.5522847 3.44771525,22 4,22 L20,22 C20.5522847,22 21,21.5522847 21,21 L21,8 Z M19,2 L20,2 C21.6568542,2 23,3.34314575 23,5 L23,21 C23,22.6568542 21.6568542,24 20,24 L4,24 C2.34314575,24 1,22.6568542 1,21 L1,5 C1,3.34314575 2.34314575,2 4,2 L5,2 L5,1 C5,0.44771525 5.44771525,4.4408921e-16 6,4.4408921e-16 C6.55228475,4.4408921e-16 7,0.44771525 7,1 L7,2 L17,2 L17,1 C17,0.44771525 17.4477153,4.4408921e-16 18,4.4408921e-16 C18.5522847,4.4408921e-16 19,0.44771525 19,1 L19,2 Z"/>
</svg>

<svg xmlns="http://www.w3.org/2000/svg" width="24" height="24" viewBox="0 0 24 24"><path fill="#758CA3" fill-rule="evenodd" d="M21 6V5c0-.5523-.4477-1-1-1H4c-.5523 0-1 .4477-1 1v1h18zm0 2H3v13c0 .5523.4477 1 1 1h16c.5523 0 1-.4477 1-1V8zm-2-6h1c1.6569 0 3 1.3431 3 3v16c0 1.6569-1.3431 3-3 3H4c-1.6569 0-3-1.3431-3-3V5c0-1.6569 1.3431-3 3-3h1V1c0-.5523.4477-1 1-1s1 .4477 1 1v1h10V1c0-.5523.4477-1 1-1s1 .4477 1 1v1z"/></svg>
